X: 1154
T: Angeline The Baker
B: ralph
B: steve tunes
M:4/4
Q: 1/4=125
K:Dmajor
V:1 
 |:f/g/|"D"af ed/e/|fe df/g/|af ed|"G"B>B Bf/g/|
 "D"af ed/e/|fe dd/e/|fe "G"dB|"D"A>B A:|
|:d/B/|"D"AB d>A|B d2 d/B/|AB d/B/A|
 "G"B3 d/B/|"D"AB d>e|fe d>e|fe "G"dB|"D"A>B A:|
W: Angeline the baker, lives on the village green
W: The way I always loved her, beats all you've ever seen
W: Angeline the baker, Angeline I know
W: Should have married Angeline, twenty years ago
W: 
W: Angeline the baker, age of 43
W: Fed her sugar candy, but she still won't marry me
W: Angeline the baker, Angeline I know
W: Should have married Angeline, just twenty years ago
W: 
W: Her father was a baker, his name was Uncle Sam
W: I never can forget her, no matter where I am
W: She said couldn't do hard work, because she is not stout
W: Baked the biscuits every day and poured the coffee out
W: Angeline the baker, age of 43
W: Fed her sugar candy, but she still won't marry me
W: Angeline the baker, Angeline I know
W: Should have married Angeline, just twenty years ago
W: 
W: I bought Angeline a brand new dress, neither black nor brown
W: It was the colour of a stormy skies, before the rain came down
W: Sixteen horses in my team, the leader he was blind
W: I dreamed that I was dying, I saw my Angeline
W: 
W: Angeline the baker, age of 43
W: Fed her sugar candy, but she still won't marry me
W: Angeline the baker, Angeline I know
W: Should have married Angeline, just twenty years ago
% abcbook-tune_id 62a420d0c28aa284789b904d


% abcbook-boost 0
% abcbook-tablature 
% abcbook-transpose 
% abcbook-lastupdated 1665485121738
% abcbook-soundfonts 
% abcbook-repeats 3


